.local/share/icons/Gruvbox-Plus-Dark/mimetypes/scalable/text-x-emacs-lisp.svg

<svg width="256" height="256" viewBox="0 0 256 256" fill="none" xmlns="http://www.w3.org/2000/svg">
<g opacity="0.4" filter="url(#filter0_f)">
<path d="M55.0839 15.5636H155.608L216.009 75.7129L216.011 224.609C216.011 233.52 208.749 240.737 199.838 240.737H55.0838C46.1734 240.737 39 233.564 39 224.654V31.6474C39 22.737 46.1734 15.5636 55.0838 15.5636H55.0839Z" fill="#282828"/>
</g>
<path d="M55.0839 15H155.608L216.009 75.1493L216.011 224.045C216.011 232.956 208.749 240.174 199.838 240.174H55.0838C46.1734 240.174 39 233 39 224.09V31.0838C39 22.1734 46.1734 15 55.0838 15H55.0839Z" fill="#ebdbb2"/>
<path opacity="0.2" d="M55.0839 15H155.608L216.009 75.1493L216.011 224.045C216.011 232.956 208.749 240.174 199.838 240.174H55.0838C46.1734 240.174 39 233 39 224.09V31.0838C39 22.1734 46.1734 15 55.0838 15H55.0839Z" fill="url(#paint0_linear)"/>
<path fill-rule="evenodd" clip-rule="evenodd" d="M155.609 22.9787H55.0839C50.58 22.9787 46.9787 26.5799 46.9787 31.0838V224.09C46.9787 228.594 50.5799 232.195 55.0838 232.195H199.838C204.371 232.195 208.032 228.521 208.032 224.046V75.1493L155.609 22.9787ZM155.608 15H55.0839C46.1735 15 39 22.1734 39 31.0838V224.09C39 233 46.1734 240.174 55.0838 240.174H199.838C208.749 240.174 216.011 232.956 216.011 224.045L216.009 75.1493L155.608 15Z" fill="url(#paint1_linear)"/>
<path d="M91.7054 181.329C91.7054 181.329 98.7407 184.695 108.107 185.882C111.899 186.363 126.329 188.044 137.393 187.999C137.393 187.999 150.869 188.012 158.307 186.941C166.09 185.817 170.499 184.383 172.953 181.519C173.017 180.837 174.137 178.612 171.113 176.466C163.377 170.981 153.379 169.48 133.956 164.79C112.481 159.298 105.733 154.041 102.526 150.237C99.4864 146.425 103.427 138.507 120.732 134.621C129.494 132.453 160.313 131.328 160.313 131.328C150.951 123.772 135.188 110.967 131.596 108.09C128.444 105.566 123.366 101.693 122.821 98.2324C122.084 94.8626 127.301 93.2404 130.061 93.0539C138.958 92.4299 151.108 94.8222 161.908 97.0062C167.337 98.1037 168.29 97.9422 168.29 97.9422C176.02 98.3164 183.572 92.8673 183.264 84.1946C183.203 75.3986 173.016 68.3436 163.442 68.036C153.758 68 130.807 68 130.807 68C156.702 73.4273 162.337 76.1655 163.688 79.3346C164.488 81.2066 162.357 83.0677 155.223 82.7044C147.453 82.3084 131.532 80.396 131.532 80.396C116.38 78.0255 107.133 75.7793 102.531 81.8928C99.5251 85.8866 102.961 90.7531 104.312 93.6211C110.324 104.29 119.411 111.61 126.01 116.768C128.493 118.709 136.072 123.007 136.072 123.007C112.51 116.456 92.4232 120.137 80.5187 126.5C66.8354 134.736 69.1765 148.633 90.8889 161.625C103.714 169.299 111.41 172.985 132.407 175.606C144.68 177.596 147.165 178.41 147.072 179.45C146.94 180.911 131.889 181.466 127.933 181.743C117.866 182.449 91.8331 181.336 91.7022 181.336L91.7054 181.329Z" fill="url(#paint2_linear)"/>
<path opacity="0.25" d="M155.608 17V61.2306C155.608 70.141 162.867 77.1605 171.777 77.1605L216.009 77.1493V75.1493L155.608 17Z" fill="#282828"/>
<path d="M155.608 15V59.2306C155.608 68.141 162.867 75.1605 171.777 75.1605L216.009 75.1493L155.608 15Z" fill="url(#paint3_linear)"/>
<defs>
<filter id="filter0_f" x="23.8778" y="0.441412" width="207.255" height="255.418" filterUnits="userSpaceOnUse" color-interpolation-filters="sRGB">
<feFlood flood-opacity="0" result="BackgroundImageFix"/>
<feBlend mode="normal" in="SourceGraphic" in2="BackgroundImageFix" result="shape"/>
<feGaussianBlur stdDeviation="7.5611" result="effect1_foregroundBlur"/>
</filter>
<linearGradient id="paint0_linear" x1="39" y1="15" x2="39" y2="240.174" gradientUnits="userSpaceOnUse">
<stop offset="1e-07" stop-color="#b16286"/>
<stop offset="1" stop-color="#8f3f71"/>
</linearGradient>
<linearGradient id="paint1_linear" x1="39" y1="15" x2="39" y2="240.174" gradientUnits="userSpaceOnUse">
<stop offset="1e-07" stop-color="#b16286"/>
<stop offset="1" stop-color="#8f3f71"/>
</linearGradient>
<linearGradient id="paint2_linear" x1="72" y1="68" x2="72" y2="188" gradientUnits="userSpaceOnUse">
<stop offset="1e-07" stop-color="#b16286"/>
<stop offset="1" stop-color="#8f3f71"/>
</linearGradient>
<linearGradient id="paint3_linear" x1="155.608" y1="15" x2="155.608" y2="75.1605" gradientUnits="userSpaceOnUse">
<stop offset="1e-07" stop-color="#b16286"/>
<stop offset="1" stop-color="#8f3f71"/>
</linearGradient>
</defs>
</svg>

<svg width="256" height="256" fill="none" version="1.1" viewBox="0 0 256 256" xmlns="http://www.w3.org/2000/svg">
  <path d="m55.08 15h100.5l60.4 60.15 2e-3 148.9c0 8.911-7.262 16.13-16.17 16.13h-144.8c-8.91 0-16.08-7.174-16.08-16.08v-193c0-8.91 7.173-16.08 16.08-16.08h1e-4z" fill="#ebdbb2"/>
  <path d="m55.08 15h100.5l60.4 60.15 2e-3 148.9c0 8.911-7.262 16.13-16.17 16.13h-144.8c-8.91 0-16.08-7.174-16.08-16.08v-193c0-8.91 7.173-16.08 16.08-16.08h1e-4z" fill="url(#paint0_linear)" opacity=".1"/>
  <path d="m155.6 22.98h-100.5c-4.504 0-8.105 3.601-8.105 8.105v193c0 4.504 3.601 8.105 8.105 8.105h144.8c4.533 0 8.194-3.674 8.194-8.149v-148.9l-52.42-52.17zm-1e-3 -7.979h-100.5c-8.91 0-16.08 7.173-16.08 16.08v193c0 8.91 7.173 16.08 16.08 16.08h144.8c8.911 0 16.17-7.218 16.17-16.13l-2e-3 -148.9-60.4-60.15z" clip-rule="evenodd" fill="url(#paint0_linear)" fill-rule="evenodd"/>
  <path d="m91.71 181.3s7.035 3.366 16.4 4.553c3.792 0.481 18.22 2.162 29.29 2.117 0 0 13.48 0.013 20.91-1.058 7.783-1.124 12.19-2.558 14.65-5.422 0.064-0.682 1.184-2.907-1.84-5.053-7.736-5.485-17.73-6.986-37.16-11.68-21.48-5.492-28.22-10.75-31.43-14.55-3.04-3.812 0.901-11.73 18.21-15.62 8.762-2.168 39.58-3.293 39.58-3.293-9.362-7.556-25.12-20.36-28.72-23.24-3.152-2.524-8.23-6.397-8.775-9.858-0.737-3.37 4.48-4.992 7.24-5.178 8.897-0.624 21.05 1.768 31.85 3.952 5.429 1.098 6.382 0.936 6.382 0.936 7.73 0.3742 15.28-5.075 14.97-13.75-0.061-8.796-10.25-15.85-19.82-16.16-9.684-0.036-32.64-0.036-32.64-0.036 25.9 5.427 31.53 8.166 32.88 11.33 0.8 1.872-1.331 3.733-8.465 3.37-7.77-0.396-23.69-2.308-23.69-2.308-15.15-2.37-24.4-4.617-29 1.497-3.006 3.994 0.43 8.86 1.781 11.73 6.012 10.67 15.1 17.99 21.7 23.15 2.483 1.941 10.06 6.239 10.06 6.239-23.56-6.551-43.65-2.87-55.55 3.493-13.68 8.236-11.34 22.13 10.37 35.12 12.83 7.674 20.52 11.36 41.52 13.98 12.27 1.99 14.76 2.804 14.66 3.844-0.132 1.461-15.18 2.016-19.14 2.293-10.07 0.706-36.1-0.407-36.23-0.407l0.0032-7e-3z" fill="url(#paint2_linear)"/>
  <path d="m155.6 17v44.23c0 8.91 7.259 15.93 16.17 15.93l44.23-0.0112v-2l-60.4-58.15z" fill="#282828" opacity=".25"/>
  <path d="m155.6 15v44.23c0 8.91 7.259 15.93 16.17 15.93l44.23-0.0112-60.4-60.15z" fill="url(#paint3_linear)"/>
  <defs>
    <linearGradient id="paint0_linear" x1="39" x2="39" y1="15" y2="240.2" gradientUnits="userSpaceOnUse">
      <stop stop-color="#b16286" offset="1e-7"/>
      <stop stop-color="#8f3f71" offset="1"/>
    </linearGradient>
    <linearGradient id="paint2_linear" x1="72" x2="72" y1="68" y2="188" gradientUnits="userSpaceOnUse">
      <stop stop-color="#b16286" offset="1e-7"/>
      <stop stop-color="#8f3f71" offset="1"/>
    </linearGradient>
    <linearGradient id="paint3_linear" x1="155.6" x2="155.6" y1="15" y2="75.16" gradientUnits="userSpaceOnUse">
      <stop stop-color="#b16286" offset="1e-7"/>
      <stop stop-color="#8f3f71" offset="1"/>
    </linearGradient>
  </defs>
</svg>
